img/cart.svg

<?xml version="1.0" encoding="iso-8859-1"?>
<!-- Generator: Adobe Illustrator 16.0.0, SVG Export Plug-In . SVG Version: 6.00 Build 0)  -->
<!DOCTYPE svg PUBLIC "-//W3C//DTD SVG 1.1//EN" "http://www.w3.org/Graphics/SVG/1.1/DTD/svg11.dtd">
<svg version="1.1" id="Capa_1" xmlns="http://www.w3.org/2000/svg" xmlns:xlink="http://www.w3.org/1999/xlink" x="0px" y="0px"
	 width="510px" height="510px" viewBox="0 0 510 510" style="enable-background:new 0 0 510 510;" xml:space="preserve">
<g>
	<g id="shopping-cart">
		<path d="M153,408c-28.05,0-51,22.95-51,51s22.95,51,51,51s51-22.95,51-51S181.05,408,153,408z M0,0v51h51l91.8,193.8L107.1,306
			c-2.55,7.65-5.1,17.85-5.1,25.5c0,28.05,22.95,51,51,51h306v-51H163.2c-2.55,0-5.1-2.55-5.1-5.1v-2.551l22.95-43.35h188.7
			c20.4,0,35.7-10.2,43.35-25.5L504.9,89.25c5.1-5.1,5.1-7.65,5.1-12.75c0-15.3-10.2-25.5-25.5-25.5H107.1L84.15,0H0z M408,408
			c-28.05,0-51,22.95-51,51s22.95,51,51,51s51-22.95,51-51S436.05,408,408,408z"/>
	</g>
</g>
<g>
</g>
<g>
</g>
<g>
</g>
<g>
</g>
<g>
</g>
<g>
</g>
<g>
</g>
<g>
</g>
<g>
</g>
<g>
</g>
<g>
</g>
<g>
</g>
<g>
</g>
<g>
</g>
<g>
</g>
</svg>

<svg width="510" height="510" viewBox="0 0 510 510" fill="none" xmlns="http://www.w3.org/2000/svg">
<path d="M153 408C124.95 408 102 430.95 102 459C102 487.05 124.95 510 153 510C181.05 510 204 487.05 204 459C204 430.95 181.05 408 153 408ZM0 0V51H51L142.8 244.8L107.1 306C104.55 313.65 102 323.85 102 331.5C102 359.55 124.95 382.5 153 382.5H459V331.5H163.2C160.65 331.5 158.1 328.95 158.1 326.4V323.849L181.05 280.499H369.75C390.15 280.499 405.45 270.299 413.1 254.999L504.9 89.25C510 84.15 510 81.6 510 76.5C510 61.2 499.8 51 484.5 51H107.1L84.15 0H0ZM408 408C379.95 408 357 430.95 357 459C357 487.05 379.95 510 408 510C436.05 510 459 487.05 459 459C459 430.95 436.05 408 408 408Z" fill="white"/>
</svg>
